X: 4245
M: 6/8
L: 1/8
K: D
|:\
|:\
gag f2e | efg a3  | gag gfe | dBg dBG |\
gag gfe | efg a3  | gag gfe | dBg dBG :|


